X:985
T: Lilies of the Field
T: Mama's Pet (b)
T: Kitty in the Lane
T: Peata Mhama\'i
S: B.Breathnach:"Ceol Rince na hEireann" IV/105
Z: B.Black
L: 1/8
M: 4/4
R: reel
K: D
A|dfec A2 AB|cdef gece|dfec A2 AB|cBcA ED D :|
A|defg a2 ge|cdef g2 fe|defg a2 fd|eaag edeA|
defg a2 ge|cdef g2 fg|afge fdec|eaag ed d ||
